build/images/svgs/icons/mobile_black.svg

<?xml version="1.0" encoding="utf-8"?>
<!-- Generator: Adobe Illustrator 17.0.0, SVG Export Plug-In . SVG Version: 6.00 Build 0)  -->
<!DOCTYPE svg PUBLIC "-//W3C//DTD SVG 1.1//EN" "http://www.w3.org/Graphics/SVG/1.1/DTD/svg11.dtd">
<svg xmlns="http://www.w3.org/2000/svg" xmlns:xlink="http://www.w3.org/1999/xlink" version="1.1" id="Layer_1" x="0px" y="0px" width="26px" height="26px" viewBox="0 0 26 26" enable-background="new 0 0 26 26" xml:space="preserve" fill="#555">

<path fill="#555" d="M19,0H8C6.343,0,5,1.344,5,3v20c0,1.656,1.343,3,3,3h11c1.657,0,3-1.344,3-3V3C22,1.344,20.657,0,19,0z   M12.5,1h2C14.776,1,15,1.224,15,1.5S14.776,2,14.5,2h-2C12.224,2,12,1.776,12,1.5S12.224,1,12.5,1z M13.5,24.778  c-0.706,0-1.278-0.572-1.278-1.278s0.572-1.278,1.278-1.278s1.278,0.572,1.278,1.278S14.206,24.778,13.5,24.778z M20,20.5  c0,0.276-0.224,0.5-0.5,0.5h-12C7.224,21,7,20.776,7,20.5v-17C7,3.224,7.224,3,7.5,3h12C19.776,3,20,3.224,20,3.5V20.5z"/>
</svg>

<svg xmlns="http://www.w3.org/2000/svg" width="26" height="26" viewBox="0 0 26 26" fill="#555"><path d="M19 0H8a3 3 0 0 0-3 3v20a3 3 0 0 0 3 3h11a3 3 0 0 0 3-3V3a3 3 0 0 0-3-3zm-6.5 1h2a.5.5 0 0 1 0 1h-2a.5.5 0 0 1 0-1zm1 23.778a1.278 1.278 0 1 1 0-2.556 1.278 1.278 0 0 1 0 2.556zM20 20.5a.5.5 0 0 1-.5.5h-12a.5.5 0 0 1-.5-.5v-17a.5.5 0 0 1 .5-.5h12a.5.5 0 0 1 .5.5v17z"/></svg>
